X: 5
T: The Hag At The Spinning Wheel
R: jig
M: 6/8
L: 1/8
K: Gmaj
~G3 B2 G | BcA B2 D | ~G3 cAG | F2 G AFD |~G3 B2 G | BcA Bge | fed cAF | GAG G2 :|BAG AFD | ~D3 AFD | ~D3 AFD | EFG ABc |BAG AFD | ~D3 FEF | ded cAF | GAG G2 :|GBd gba | gdB ecA | dBG cAG | F2 G AFD |GBd gba | gdB ~e3 | fed cAF | GAG G2 :|BAG Afd | Bfd Agd | Bfd AFD | EFG ABc |BAG AFD | ~D3 FEF | ded cAF | GAG G2 :|


Tune 2254	Setting 2254

